**kern	**kern	**dynam
*part1	*part1	*part1
*staff2	*staff1	*
*I"Piano	*	*
*clefF4	*clefG2	*
*k[f#]	*k[f#]	*
=1	=1	=1
*	*^	*
2.AA 2.E 2.A	2.cc:	4.e 4.g	.
!	!LO:TX:b:i:t=cresc.	!	!
.	.	8d 8f#	.
.	.	4c) 4e	.
=	=	=	=
2.GG 2.E 2.B	(2.ee	4e 4g	<
.	.	4f# 4a	.
.	.	4g 4b	.
*	*v	*v	*
=	=	=
4CC#X 4C#X	2g 2b 2gg	.
2G 2B 2e	.	.
.	8ff#L	.
.	8eeJ)	.
=	=	=
2F# 2B 2d	(2f# 2b 2dd	[
4FFF# 4FF#	4f# 4b 4dd 4ff#	.
=	=	=
2.F#	2B 2d 2e#X 2g#X	>
.	4c#X) 4en 4a#X	.
=	=	=
2BBB 2BB	(4d 4f# 4b	.
.	4e 4f# 4cc#X	.
[4F#	4f#) 4b 4dd	] <
=	=	=
2BB 2F#]	(4d 4b 4dd	.
.	4e 4cc#X 4ee	.
4r	4f#) 4dd 4ff#	.
=	=	=
*-	*-	*-
!!!system-decoration: {(s1,s2)}
